X:1
T:Title
%%score { 1 | 2 }
L:1/8
M:4/4
K:F
V:1 treble nm="Grand Piano"
V:2 bass 
V:1
 z4 z2[Q:1/4=100] A2 | G2 F2 FEFG | F2 E2 E2 [GB]2 | [FA]2 [EG]2 [EG][E^F][EG][EA] | G2 F2 F2 c2 | %5
 B2 A2 A_A=Ac | [Dc]2 [DB]2 [DB]2 [DB]2 | [CA] [Fc]2 F [FA]2 [EG]2 |[M:7/8] F-F-F- F3 z | %9
[M:1/8] c |[M:4/4] c2 A2 c3 A | BAGF E3 [GB] | [GB]2 [EG]2 [EB]3 E | DCFB A3 c | c2 A2 c3 A | %15
 GFGA [DB]2 [Fd]2 | [Fc][CFA][A,F][DFB] [CFA]2 [B,EG]2 |[M:3/4] [A,F]6 |] %18
V:2
 z4 z2 [F,CF]2 | [F,B,C]2 [F,A,C]2 [F,A,C][F,G,C][F,A,C][F,B,C] | %2
 [G,B,C]2 [G,B,C]2 [G,B,C]2 [C,C]2 | [C,C]2 [C,B,]2 [C,B,][C,A,][C,B,][C,C] | %4
 [F,B,C]2 [F,A,C]2 [F,A,C]2 [F,A,F]2 | [F,DF]2 [F,CF]2 [F,CF][F,=B,F][F,CF][F,A,_E] | %6
 [B,,B,]2 [B,,F,]2 [B,,F,]2 [B,,F,]2 | [C,F,] [C,A,]2 [C,A,] [C,C]2 [C,B,]2 | %8
[M:7/8] [F,A,]-[F,A,]-[F,A,]- [F,A,]3 z |[M:1/8] [F,A,F] | %10
[M:4/4] [F,A,F]2 [F,CF]2 [F,A,F]3 [F,CF] | [F,DF][F,CF][F,B,C][F,A,C] [G,B,C]3 [C,C] | %12
 [C,C]2 [C,C]2 [C,G,]3 [C,G,C] | [F,B,][F,A,][F,A,C][F,DF] [F,CF]3 [F,A,F] | %14
 [F,A,F]2 [F,CF]2 [F,A,F]3 [F,CF] | [F,B,F][F,A,][F,B,E][F,C_E] [B,,B,]2 [B,,B,]2 | %16
 [C,A,]C,C,C, C,2 C,2 |[M:3/4] F,6 |] %18

